neru-dark-classic/22x22/actions/account-close.svg

<svg xmlns="http://www.w3.org/2000/svg" width="22" height="22" version="1.1">
 <defs>
  <style id="current-color-scheme" type="text/css">
   .ColorScheme-Text { color:#d3dae3; } .ColorScheme-Highlight { color:#3fb7ff; }
  </style>
 </defs>
 <path style="fill:currentColor" class="ColorScheme-Text" d="M 6.5 3 C 5.669 3 5 3.669 5 4.5 L 5 5 L 17 5 L 17 4.5 C 17 3.669 16.331 3 15.5 3 L 6.5 3 z M 5 7 L 5 9 L 17 9 L 17 7 L 5 7 z M 5 11 L 5 13 L 14 13 L 15.414062 13 L 17 13 L 17 11 L 5 11 z M 5 15 L 5 17 L 14.171875 17 L 13.292969 16.121094 A 1.0001 1.0001 0 0 1 13 15.414062 L 13 15 L 5 15 z"/>
 <path style="opacity:0.3;fill:currentColor" class="ColorScheme-Text" d="M 5 5 L 5 7 L 17 7 L 17 5 L 5 5 z M 5 9 L 5 11 L 17 11 L 17 9 L 5 9 z M 5 13 L 5 15 L 13 15 L 13 14 A 1.0001 1.0001 0 0 1 14 13 L 5 13 z M 15.414062 13 A 1.0001 1.0001 0 0 1 16.121094 13.292969 L 17 14.171875 L 17 13 L 15.414062 13 z M 5 17 L 5 17.5 C 5 18.331 5.669 19 6.5 19 L 13 19 L 13 18.585938 A 1.0001 1.0001 0 0 1 13.292969 17.878906 L 14.171875 17 L 5 17 z"/>
 <path style="opacity:0.3;fill:currentColor" class="ColorScheme-Text" d="M 15 3 L 15 13 L 15.414062 13 A 1.0001 1.0001 0 0 1 16.121094 13.292969 L 17 14.171875 L 17 13 L 17 11 L 17 9 L 17 7 L 17 5 L 17 4.5 C 17 3.669 16.331 3 15.5 3 L 15 3 z"/>
 <path style="fill:currentColor" class="ColorScheme-Text" d="m 14,14 v 1.414062 L 15.585938,17 14,18.585938 V 20 h 1.414062 L 17,18.414062 18.585938,20 H 20 V 18.585938 L 18.414062,17 20,15.414062 V 14 H 18.585938 L 17,15.585938 15.414062,14 Z"/>
 <path style="fill:none" d="M 12 14 L 12 15.414062 L 13.585938 17 L 12 18.585938 L 12 20 L 13.414062 20 L 15 18.414062 L 16.585938 20 L 18 20 L 18 18.585938 L 16.414062 17 L 18 15.414062 L 18 14 L 16.585938 14 L 15 15.585938 L 13.414062 14 L 12 14 z"/>
</svg>

<svg xmlns="http://www.w3.org/2000/svg" width="22" height="22"><defs><style id="current-color-scheme" type="text/css">.ColorScheme-Text{color:#d3dae3}</style></defs><path class="ColorScheme-Text" d="M6.5 3C5.669 3 5 3.669 5 4.5V5h12v-.5c0-.831-.669-1.5-1.5-1.5h-9zM5 7v2h12V7H5zm0 4v2h12v-2H5zm0 4v2h9.172l-.879-.879a1 1 0 0 1-.293-.707V15H5z" fill="currentColor"/><path class="ColorScheme-Text" d="M5 5v2h12V5H5zm0 4v2h12V9H5zm0 4v2h8v-1a1 1 0 0 1 1-1H5zm10.414 0a1 1 0 0 1 .707.293l.879.879V13h-1.586zM5 17v.5c0 .831.669 1.5 1.5 1.5H13v-.414a1 1 0 0 1 .293-.707l.879-.879H5z" opacity=".3" fill="currentColor"/><path class="ColorScheme-Text" d="M15 3v10h.414a1 1 0 0 1 .707.293l.879.879V4.5c0-.831-.669-1.5-1.5-1.5H15z" opacity=".3" fill="currentColor"/><path class="ColorScheme-Text" d="M14 14v1.414L15.586 17 14 18.586V20h1.414L17 18.414 18.586 20H20v-1.414L18.414 17 20 15.414V14h-1.414L17 15.586 15.414 14z" fill="currentColor"/><path d="M12 14v1.414L13.586 17 12 18.586V20h1.414L15 18.414 16.586 20H18v-1.414L16.414 17 18 15.414V14h-1.414L15 15.586 13.414 14H12z" fill="none"/></svg>
